X:185
T:Blakeney's Tamborine. JJo.185
B:J.Johnson Choice Collection Vol 8 1758
Z:vmp.Simon Wilson 2013 www.village-music-project.org.uk
Z:Dance added by John Chambers 2017
M:2/4
L:1/8
%Q:1/4=100
K:A
|:\
AECA, | [A,3E3A3](c/B/A) | eBGE | [E3B3e3](gf/e/) |\
d/c/B- Bd | c/B/(A A)F//(G//A/) | GF/E/T [B,2F2] | [E4B4e4] :|
|:\
ef=ge | dB[B,2F2B2] | defd | cA[A,2E2A2] |\
c>dec | B/e/^d/f/ eA | GF/E/TF2 | E2z/=D/C/B,/ |
A,CEA | [A,2E2A2](c/B/A) | EGBe | [E3B3e3](g/f/e) |\
ceac' | {c'}b3d | cB/A/ EG | [A,4E4A4] :|
%%begintext align
%% The 1st Cu. cast off and turn .| cast up and
%% turn ..| hands across with the 2d Cu. the same
%% back again .| Gallop down and up and cast off
%% and Right and Left at Top ..|
%%endtext
